report_00007_2020-12-11T15:55:29.892Z/network-server-latency/comparison/sorted/8_vs_9.svg

<svg width="640" height="500" xmlns="http://www.w3.org/2000/svg" xmlns:xlink="http://www.w3.org/1999/xlink"><path fill="#fff" d="M0 0h640v500H0z"/><defs><path id="d" stroke-width=".222" stroke="currentColor" d="M-1-1h2v2h-2z"/><path id="b" stroke-width=".222" stroke="currentColor" d="M0-1.33l-1.33 2h2.66z"/><path id="f" stroke-width=".222" stroke="currentColor" d="M0 1.33L1.265.411.782-1.067l-1.564-.009-.483 1.487z"/><use xlink:href="#b" id="c" stroke="currentColor" transform="rotate(180)"/><use xlink:href="#d" id="e" stroke="currentColor" transform="rotate(45)"/><circle id="a" stroke-width=".222" stroke="currentColor" cx="0" cy="0" r="1"/></defs><g fill="none" color="#000" stroke="currentColor"><path stroke="#000" d="M53.9 435.2h9m552.1 0h-9"/><text transform="translate(45.6 439.1)" stroke="none" fill="#000" font-family="Arial" font-size="12" text-anchor="end"><tspan>3.5</tspan></text></g><g fill="none" color="#000" stroke="currentColor"><path stroke="#000" d="M53.9 360.6h9m552.1 0h-9"/><text transform="translate(45.6 364.5)" stroke="none" fill="#000" font-family="Arial" font-size="12" text-anchor="end"><tspan>4</tspan></text></g><g fill="none" color="#000" stroke="currentColor"><path stroke="#000" d="M53.9 286h9m552.1 0h-9"/><text transform="translate(45.6 289.9)" stroke="none" fill="#000" font-family="Arial" font-size="12" text-anchor="end"><tspan>4.5</tspan></text></g><g fill="none" color="#000" stroke="currentColor"><path stroke="#000" d="M53.9 211.4h9m552.1 0h-9"/><text transform="translate(45.6 215.3)" stroke="none" fill="#000" font-family="Arial" font-size="12" text-anchor="end"><tspan>5</tspan></text></g><g fill="none" color="#000" stroke="currentColor"><path stroke="#000" d="M53.9 136.8h9m552.1 0h-9"/><text transform="translate(45.6 140.7)" stroke="none" fill="#000" font-family="Arial" font-size="12" text-anchor="end"><tspan>5.5</tspan></text></g><g fill="none" color="#000" stroke="currentColor"><path stroke="#000" d="M53.9 62.2h9m552.1 0h-9"/><text transform="translate(45.6 66.1)" stroke="none" fill="#000" font-family="Arial" font-size="12" text-anchor="end"><tspan>6</tspan></text></g><g fill="none" color="#000" stroke="currentColor"><path stroke="#000" d="M53.9 446v-9m0-418.9v9"/><text transform="translate(53.9 467.9)" stroke="none" fill="#000" font-family="Arial" font-size="12" text-anchor="middle"><tspan>0</tspan></text></g><g fill="none" color="#000" stroke="currentColor"><path stroke="#000" d="M110.6 446v-9m0-418.9v9"/><text transform="translate(110.6 467.9)" stroke="none" fill="#000" font-family="Arial" font-size="12" text-anchor="middle"><tspan>10</tspan></text></g><g fill="none" color="#000" stroke="currentColor"><path stroke="#000" d="M167.3 446v-9m0-418.9v9"/><text transform="translate(167.3 467.9)" stroke="none" fill="#000" font-family="Arial" font-size="12" text-anchor="middle"><tspan>20</tspan></text></g><g fill="none" color="#000" stroke="currentColor"><path stroke="#000" d="M223.9 446v-9m0-418.9v9"/><text transform="translate(223.9 467.9)" stroke="none" fill="#000" font-family="Arial" font-size="12" text-anchor="middle"><tspan>30</tspan></text></g><g fill="none" color="#000" stroke="currentColor"><path stroke="#000" d="M280.6 446v-9m0-418.9v9"/><text transform="translate(280.6 467.9)" stroke="none" fill="#000" font-family="Arial" font-size="12" text-anchor="middle"><tspan>40</tspan></text></g><g fill="none" color="#000" stroke="currentColor"><path stroke="#000" d="M337.3 446v-9m0-418.9v9"/><text transform="translate(337.3 467.9)" stroke="none" fill="#000" font-family="Arial" font-size="12" text-anchor="middle"><tspan>50</tspan></text></g><g fill="none" color="#000" stroke="currentColor"><path stroke="#000" d="M394 446v-9m0-418.9v9"/><text transform="translate(394 467.9)" stroke="none" fill="#000" font-family="Arial" font-size="12" text-anchor="middle"><tspan>60</tspan></text></g><g fill="none" color="#000" stroke="currentColor"><path stroke="#000" d="M450.6 446v-9m0-418.9v9"/><text transform="translate(450.6 467.9)" stroke="none" fill="#000" font-family="Arial" font-size="12" text-anchor="middle"><tspan>70</tspan></text></g><g fill="none" color="#000" stroke="currentColor"><path stroke="#000" d="M507.3 446v-9m0-418.9v9"/><text transform="translate(507.3 467.9)" stroke="none" fill="#000" font-family="Arial" font-size="12" text-anchor="middle"><tspan>80</tspan></text></g><g fill="none" color="#000" stroke="currentColor"><path stroke="#000" d="M564 446v-9m0-418.9v9"/><text transform="translate(564 467.9)" stroke="none" fill="#000" font-family="Arial" font-size="12" text-anchor="middle"><tspan>90</tspan></text></g><path stroke="#000" d="M53.9 18.1V446H615V18.1H53.9z" fill="none" color="#000"/><text transform="translate(275.6 485.9)" stroke="none" fill="#000" font-family="Arial" font-size="12" text-anchor="end" color="#000"><tspan>pages+cached+noexternal+noimg</tspan></text><path stroke="#9400D3" d="M283.9 482h42.2M53.9 437.8l5.7-10.3 5.6-26.2 5.7-3.5 5.7-13.3 5.6-12.2 5.7-1.3 5.7-9.4 5.6-8.2 5.7-3 5.7-2.3 5.6-.3 5.7-.1 5.7-1.9 5.6-2.3 5.7-.2 5.7-3.6 5.7-8.1 5.6-.1 5.7-.9 5.7-3.6 5.6-1.3 5.7-1.6 5.7-.4 5.6-.8 5.7-.5 5.7-.7 5.6-1h5.7l5.7-11.1 5.6-.1 5.7-1.9 5.7-1.4 5.6-.5 5.7-.7 5.7-1.8 5.6-.6 5.7-.4 5.7-.2 5.6-1.6 5.7-.6 5.7-.5 5.6-1.3 5.7-3.8 5.7-3.8 5.6-.8 5.7-.1 5.7-.9 5.6-.4 5.7-.1 5.7-.3h5.7l5.6-.4 5.7-.6h5.7l5.6-.5 5.7-1.7 5.7-.6 5.6-.8 5.7-1.7 5.7-1.5 5.6-2.1 5.7-3.7 5.7-.5 5.6-.8 5.7-.1 5.7-.3 5.6-5.7 5.7-6 5.7-.8 5.6-2.4h5.7l5.7-.2 5.6-.6 5.7-.5 5.7-1.4 5.6-.4 5.7-.9 5.7-1.7 5.6-4.5 5.7-10.7 5.7-1.7 5.6-.3 5.7-6.4 5.7-7 5.7-.7 5.6-4.5 5.7-4.4 5.7-6.1 5.6-9.6 5.7-1.3 5.7-.9 5.6-1.5 5.7-2 5.7-12.9 5.6-9.2 5.7-4.9 5.7-3.9 5.6-39.4 5.7-93.7" fill="none" color="#000"/><text transform="translate(575.1 485.9)" stroke="none" fill="#000" font-family="Arial" font-size="12" text-anchor="end" color="#000"><tspan>pages+cached+noexternal+nocss</tspan></text><path stroke="#009E73" d="M583.4 482h42.2M53.9 434l5.7-13.4 5.6-11.7 5.7-8 5.7-6.5 5.6-16.6 5.7-5.8 5.7-4.3 5.6-6.3 5.7-.2 5.7-5.8 5.6-.8 5.7-.5 5.7-3.6 5.6-3.8 5.7-5.9 5.7-.4 5.7-1.1 5.6-.7 5.7-6 5.7-6.3h5.6l5.7-5.2 5.7-6.8 5.6-.6 5.7-2.5 5.7-4.5h5.6l5.7-2.4 5.7-3.8 5.6-3.9 5.7-.7 5.7-.3 5.6-2.4 5.7-6.2 5.7-1.8 5.6-.2 5.7-.5 5.7-2.5 5.6-.1 5.7-1 5.7-1.5 5.6-3.1 5.7-.9 5.7-.2 5.6-1.9 5.7-.7 5.7-.1 5.6-1.6 5.7-5.2 5.7-2 5.7-.3 5.6-2.7 5.7-.2 5.7-4.5 5.6-2 5.7-.2 5.7-.5 5.6-.4 5.7-.8 5.7-.2 5.6-.7 5.7-.2h5.7l5.6-.3 5.7-.6 5.7-5 5.6-.5 5.7-1.3 5.7-.7 5.6-.5 5.7-3.1 5.7-1.8 5.6-.2 5.7-.7 5.7-1.4 5.6-1.7 5.7-1.4 5.7-7.1 5.6-.8 5.7-.5 5.7-4.5 5.6-.5 5.7-2.7 5.7-.1 5.7-4.3 5.6-4.3 5.7-3.2 5.7-10.9 5.6-1.9 5.7-1.4 5.7-.2 5.6-3.7 5.7-3.1 5.7-3.1 5.6-3.9 5.7-54.7 5.7-1.1 5.6-39.8 5.7-20.4" fill="none" color="#000"/><g fill="none" color="#000" stroke="currentColor"><path stroke="#000" d="M53.9 18.1V446H615V18.1H53.9z"/></g></svg>

<?xml version="1.0" encoding="utf-8"  standalone="no"?>
<svg 
 width="640" height="500"
 viewBox="0 0 640 500"
 xmlns="http://www.w3.org/2000/svg"
 xmlns:xlink="http://www.w3.org/1999/xlink"
>

<title>Gnuplot</title>
<desc>Produced by GNUPLOT 5.4 patchlevel 0 </desc>

<g id="gnuplot_canvas">

<rect x="0" y="0" width="640" height="500" fill="#ffffff"/>
<defs>

	<circle id='gpDot' r='0.5' stroke-width='0.5' stroke='currentColor'/>
	<path id='gpPt0' stroke-width='0.222' stroke='currentColor' d='M-1,0 h2 M0,-1 v2'/>
	<path id='gpPt1' stroke-width='0.222' stroke='currentColor' d='M-1,-1 L1,1 M1,-1 L-1,1'/>
	<path id='gpPt2' stroke-width='0.222' stroke='currentColor' d='M-1,0 L1,0 M0,-1 L0,1 M-1,-1 L1,1 M-1,1 L1,-1'/>
	<rect id='gpPt3' stroke-width='0.222' stroke='currentColor' x='-1' y='-1' width='2' height='2'/>
	<rect id='gpPt4' stroke-width='0.222' stroke='currentColor' fill='currentColor' x='-1' y='-1' width='2' height='2'/>
	<circle id='gpPt5' stroke-width='0.222' stroke='currentColor' cx='0' cy='0' r='1'/>
	<use xlink:href='#gpPt5' id='gpPt6' fill='currentColor' stroke='none'/>
	<path id='gpPt7' stroke-width='0.222' stroke='currentColor' d='M0,-1.33 L-1.33,0.67 L1.33,0.67 z'/>
	<use xlink:href='#gpPt7' id='gpPt8' fill='currentColor' stroke='none'/>
	<use xlink:href='#gpPt7' id='gpPt9' stroke='currentColor' transform='rotate(180)'/>
	<use xlink:href='#gpPt9' id='gpPt10' fill='currentColor' stroke='none'/>
	<use xlink:href='#gpPt3' id='gpPt11' stroke='currentColor' transform='rotate(45)'/>
	<use xlink:href='#gpPt11' id='gpPt12' fill='currentColor' stroke='none'/>
	<path id='gpPt13' stroke-width='0.222' stroke='currentColor' d='M0,1.330 L1.265,0.411 L0.782,-1.067 L-0.782,-1.076 L-1.265,0.411 z'/>
	<use xlink:href='#gpPt13' id='gpPt14' fill='currentColor' stroke='none'/>
	<filter id='textbox' filterUnits='objectBoundingBox' x='0' y='0' height='1' width='1'>
	  <feFlood flood-color='#FFFFFF' flood-opacity='1' result='bgnd'/>
	  <feComposite in='SourceGraphic' in2='bgnd' operator='atop'/>
	</filter>
	<filter id='greybox' filterUnits='objectBoundingBox' x='0' y='0' height='1' width='1'>
	  <feFlood flood-color='lightgrey' flood-opacity='1' result='grey'/>
	  <feComposite in='SourceGraphic' in2='grey' operator='atop'/>
	</filter>
</defs>
<g fill="none" color="#FFFFFF" stroke="black" stroke-width="1.00" stroke-linecap="butt" stroke-linejoin="miter">
</g>
<g fill="none" color="black" stroke="currentColor" stroke-width="1.00" stroke-linecap="butt" stroke-linejoin="miter">
	<path stroke='black'  d='M53.9,435.2 L62.9,435.2 M615.0,435.2 L606.0,435.2  '/>	<g transform="translate(45.6,439.1)" stroke="none" fill="black" font-family="Arial" font-size="12.00"  text-anchor="end">
		<text><tspan font-family="Arial" > 3.5</tspan></text>
	</g>
</g>
<g fill="none" color="black" stroke="currentColor" stroke-width="1.00" stroke-linecap="butt" stroke-linejoin="miter">
	<path stroke='black'  d='M53.9,360.6 L62.9,360.6 M615.0,360.6 L606.0,360.6  '/>	<g transform="translate(45.6,364.5)" stroke="none" fill="black" font-family="Arial" font-size="12.00"  text-anchor="end">
		<text><tspan font-family="Arial" > 4</tspan></text>
	</g>
</g>
<g fill="none" color="black" stroke="currentColor" stroke-width="1.00" stroke-linecap="butt" stroke-linejoin="miter">
	<path stroke='black'  d='M53.9,286.0 L62.9,286.0 M615.0,286.0 L606.0,286.0  '/>	<g transform="translate(45.6,289.9)" stroke="none" fill="black" font-family="Arial" font-size="12.00"  text-anchor="end">
		<text><tspan font-family="Arial" > 4.5</tspan></text>
	</g>
</g>
<g fill="none" color="black" stroke="currentColor" stroke-width="1.00" stroke-linecap="butt" stroke-linejoin="miter">
	<path stroke='black'  d='M53.9,211.4 L62.9,211.4 M615.0,211.4 L606.0,211.4  '/>	<g transform="translate(45.6,215.3)" stroke="none" fill="black" font-family="Arial" font-size="12.00"  text-anchor="end">
		<text><tspan font-family="Arial" > 5</tspan></text>
	</g>
</g>
<g fill="none" color="black" stroke="currentColor" stroke-width="1.00" stroke-linecap="butt" stroke-linejoin="miter">
	<path stroke='black'  d='M53.9,136.8 L62.9,136.8 M615.0,136.8 L606.0,136.8  '/>	<g transform="translate(45.6,140.7)" stroke="none" fill="black" font-family="Arial" font-size="12.00"  text-anchor="end">
		<text><tspan font-family="Arial" > 5.5</tspan></text>
	</g>
</g>
<g fill="none" color="black" stroke="currentColor" stroke-width="1.00" stroke-linecap="butt" stroke-linejoin="miter">
	<path stroke='black'  d='M53.9,62.2 L62.9,62.2 M615.0,62.2 L606.0,62.2  '/>	<g transform="translate(45.6,66.1)" stroke="none" fill="black" font-family="Arial" font-size="12.00"  text-anchor="end">
		<text><tspan font-family="Arial" > 6</tspan></text>
	</g>
</g>
<g fill="none" color="black" stroke="currentColor" stroke-width="1.00" stroke-linecap="butt" stroke-linejoin="miter">
	<path stroke='black'  d='M53.9,446.0 L53.9,437.0 M53.9,18.1 L53.9,27.1  '/>	<g transform="translate(53.9,467.9)" stroke="none" fill="black" font-family="Arial" font-size="12.00"  text-anchor="middle">
		<text><tspan font-family="Arial" > 0</tspan></text>
	</g>
</g>
<g fill="none" color="black" stroke="currentColor" stroke-width="1.00" stroke-linecap="butt" stroke-linejoin="miter">
	<path stroke='black'  d='M110.6,446.0 L110.6,437.0 M110.6,18.1 L110.6,27.1  '/>	<g transform="translate(110.6,467.9)" stroke="none" fill="black" font-family="Arial" font-size="12.00"  text-anchor="middle">
		<text><tspan font-family="Arial" > 10</tspan></text>
	</g>
</g>
<g fill="none" color="black" stroke="currentColor" stroke-width="1.00" stroke-linecap="butt" stroke-linejoin="miter">
	<path stroke='black'  d='M167.3,446.0 L167.3,437.0 M167.3,18.1 L167.3,27.1  '/>	<g transform="translate(167.3,467.9)" stroke="none" fill="black" font-family="Arial" font-size="12.00"  text-anchor="middle">
		<text><tspan font-family="Arial" > 20</tspan></text>
	</g>
</g>
<g fill="none" color="black" stroke="currentColor" stroke-width="1.00" stroke-linecap="butt" stroke-linejoin="miter">
	<path stroke='black'  d='M223.9,446.0 L223.9,437.0 M223.9,18.1 L223.9,27.1  '/>	<g transform="translate(223.9,467.9)" stroke="none" fill="black" font-family="Arial" font-size="12.00"  text-anchor="middle">
		<text><tspan font-family="Arial" > 30</tspan></text>
	</g>
</g>
<g fill="none" color="black" stroke="currentColor" stroke-width="1.00" stroke-linecap="butt" stroke-linejoin="miter">
	<path stroke='black'  d='M280.6,446.0 L280.6,437.0 M280.6,18.1 L280.6,27.1  '/>	<g transform="translate(280.6,467.9)" stroke="none" fill="black" font-family="Arial" font-size="12.00"  text-anchor="middle">
		<text><tspan font-family="Arial" > 40</tspan></text>
	</g>
</g>
<g fill="none" color="black" stroke="currentColor" stroke-width="1.00" stroke-linecap="butt" stroke-linejoin="miter">
	<path stroke='black'  d='M337.3,446.0 L337.3,437.0 M337.3,18.1 L337.3,27.1  '/>	<g transform="translate(337.3,467.9)" stroke="none" fill="black" font-family="Arial" font-size="12.00"  text-anchor="middle">
		<text><tspan font-family="Arial" > 50</tspan></text>
	</g>
</g>
<g fill="none" color="black" stroke="currentColor" stroke-width="1.00" stroke-linecap="butt" stroke-linejoin="miter">
	<path stroke='black'  d='M394.0,446.0 L394.0,437.0 M394.0,18.1 L394.0,27.1  '/>	<g transform="translate(394.0,467.9)" stroke="none" fill="black" font-family="Arial" font-size="12.00"  text-anchor="middle">
		<text><tspan font-family="Arial" > 60</tspan></text>
	</g>
</g>
<g fill="none" color="black" stroke="currentColor" stroke-width="1.00" stroke-linecap="butt" stroke-linejoin="miter">
	<path stroke='black'  d='M450.6,446.0 L450.6,437.0 M450.6,18.1 L450.6,27.1  '/>	<g transform="translate(450.6,467.9)" stroke="none" fill="black" font-family="Arial" font-size="12.00"  text-anchor="middle">
		<text><tspan font-family="Arial" > 70</tspan></text>
	</g>
</g>
<g fill="none" color="black" stroke="currentColor" stroke-width="1.00" stroke-linecap="butt" stroke-linejoin="miter">
	<path stroke='black'  d='M507.3,446.0 L507.3,437.0 M507.3,18.1 L507.3,27.1  '/>	<g transform="translate(507.3,467.9)" stroke="none" fill="black" font-family="Arial" font-size="12.00"  text-anchor="middle">
		<text><tspan font-family="Arial" > 80</tspan></text>
	</g>
</g>
<g fill="none" color="black" stroke="currentColor" stroke-width="1.00" stroke-linecap="butt" stroke-linejoin="miter">
	<path stroke='black'  d='M564.0,446.0 L564.0,437.0 M564.0,18.1 L564.0,27.1  '/>	<g transform="translate(564.0,467.9)" stroke="none" fill="black" font-family="Arial" font-size="12.00"  text-anchor="middle">
		<text><tspan font-family="Arial" > 90</tspan></text>
	</g>
</g>
<g fill="none" color="black" stroke="currentColor" stroke-width="1.00" stroke-linecap="butt" stroke-linejoin="miter">
</g>
<g fill="none" color="black" stroke="currentColor" stroke-width="1.00" stroke-linecap="butt" stroke-linejoin="miter">
	<path stroke='black'  d='M53.9,18.1 L53.9,446.0 L615.0,446.0 L615.0,18.1 L53.9,18.1 Z  '/></g>
<g fill="none" color="black" stroke="currentColor" stroke-width="1.00" stroke-linecap="butt" stroke-linejoin="miter">
</g>
	<g id="gnuplot_plot_1" ><title>pages+cached+noexternal+noimg</title>
<g fill="none" color="black" stroke="currentColor" stroke-width="1.00" stroke-linecap="butt" stroke-linejoin="miter">
	<g transform="translate(275.6,485.9)" stroke="none" fill="black" font-family="Arial" font-size="12.00"  text-anchor="end">
		<text><tspan font-family="Arial" >pages+cached+noexternal+noimg</tspan></text>
	</g>
</g>
<g fill="none" color="black" stroke="currentColor" stroke-width="1.00" stroke-linecap="butt" stroke-linejoin="miter">
	<path stroke='rgb(148,   0, 211)'  d='M283.9,482.0 L326.1,482.0 M53.9,437.8 L59.6,427.5 L65.2,401.3 L70.9,397.8 L76.6,384.5 L82.2,372.3
		L87.9,371.0 L93.6,361.6 L99.2,353.4 L104.9,350.4 L110.6,348.1 L116.2,347.8 L121.9,347.7 L127.6,345.8
		L133.2,343.5 L138.9,343.3 L144.6,339.7 L150.3,331.6 L155.9,331.5 L161.6,330.6 L167.3,327.0 L172.9,325.7
		L178.6,324.1 L184.3,323.7 L189.9,322.9 L195.6,322.4 L201.3,321.7 L206.9,320.7 L212.6,320.7 L218.3,309.6
		L223.9,309.5 L229.6,307.6 L235.3,306.2 L240.9,305.7 L246.6,305.0 L252.3,303.2 L257.9,302.6 L263.6,302.2
		L269.3,302.0 L274.9,300.4 L280.6,299.8 L286.3,299.3 L291.9,298.0 L297.6,294.2 L303.3,290.4 L308.9,289.6
		L314.6,289.5 L320.3,288.6 L325.9,288.2 L331.6,288.1 L337.3,287.8 L343.0,287.8 L348.6,287.4 L354.3,286.8
		L360.0,286.8 L365.6,286.3 L371.3,284.6 L377.0,284.0 L382.6,283.2 L388.3,281.5 L394.0,280.0 L399.6,277.9
		L405.3,274.2 L411.0,273.7 L416.6,272.9 L422.3,272.8 L428.0,272.5 L433.6,266.8 L439.3,260.8 L445.0,260.0
		L450.6,257.6 L456.3,257.6 L462.0,257.4 L467.6,256.8 L473.3,256.3 L479.0,254.9 L484.6,254.5 L490.3,253.6
		L496.0,251.9 L501.6,247.4 L507.3,236.7 L513.0,235.0 L518.6,234.7 L524.3,228.3 L530.0,221.3 L535.7,220.6
		L541.3,216.1 L547.0,211.7 L552.7,205.6 L558.3,196.0 L564.0,194.7 L569.7,193.8 L575.3,192.3 L581.0,190.3
		L586.7,177.4 L592.3,168.2 L598.0,163.3 L603.7,159.4 L609.3,120.0 L615.0,26.3  '/></g>
	</g>
	<g id="gnuplot_plot_2" ><title>pages+cached+noexternal+nocss</title>
<g fill="none" color="black" stroke="currentColor" stroke-width="1.00" stroke-linecap="butt" stroke-linejoin="miter">
	<g transform="translate(575.1,485.9)" stroke="none" fill="black" font-family="Arial" font-size="12.00"  text-anchor="end">
		<text><tspan font-family="Arial" >pages+cached+noexternal+nocss</tspan></text>
	</g>
</g>
<g fill="none" color="black" stroke="currentColor" stroke-width="1.00" stroke-linecap="butt" stroke-linejoin="miter">
	<path stroke='rgb(  0, 158, 115)'  d='M583.4,482.0 L625.6,482.0 M53.9,434.0 L59.6,420.6 L65.2,408.9 L70.9,400.9 L76.6,394.4 L82.2,377.8
		L87.9,372.0 L93.6,367.7 L99.2,361.4 L104.9,361.2 L110.6,355.4 L116.2,354.6 L121.9,354.1 L127.6,350.5
		L133.2,346.7 L138.9,340.8 L144.6,340.4 L150.3,339.3 L155.9,338.6 L161.6,332.6 L167.3,326.3 L172.9,326.3
		L178.6,321.1 L184.3,314.3 L189.9,313.7 L195.6,311.2 L201.3,306.7 L206.9,306.7 L212.6,304.3 L218.3,300.5
		L223.9,296.6 L229.6,295.9 L235.3,295.6 L240.9,293.2 L246.6,287.0 L252.3,285.2 L257.9,285.0 L263.6,284.5
		L269.3,282.0 L274.9,281.9 L280.6,280.9 L286.3,279.4 L291.9,276.3 L297.6,275.4 L303.3,275.2 L308.9,273.3
		L314.6,272.6 L320.3,272.5 L325.9,270.9 L331.6,265.7 L337.3,263.7 L343.0,263.4 L348.6,260.7 L354.3,260.5
		L360.0,256.0 L365.6,254.0 L371.3,253.8 L377.0,253.3 L382.6,252.9 L388.3,252.1 L394.0,251.9 L399.6,251.2
		L405.3,251.0 L411.0,251.0 L416.6,250.7 L422.3,250.1 L428.0,245.1 L433.6,244.6 L439.3,243.3 L445.0,242.6
		L450.6,242.1 L456.3,239.0 L462.0,237.2 L467.6,237.0 L473.3,236.3 L479.0,234.9 L484.6,233.2 L490.3,231.8
		L496.0,224.7 L501.6,223.9 L507.3,223.4 L513.0,218.9 L518.6,218.4 L524.3,215.7 L530.0,215.6 L535.7,211.3
		L541.3,207.0 L547.0,203.8 L552.7,192.9 L558.3,191.0 L564.0,189.6 L569.7,189.4 L575.3,185.7 L581.0,182.6
		L586.7,179.5 L592.3,175.6 L598.0,120.9 L603.7,119.8 L609.3,80.0 L615.0,59.6  '/></g>
	</g>
<g fill="none" color="#FFFFFF" stroke="rgb(  0, 158, 115)" stroke-width="2.00" stroke-linecap="butt" stroke-linejoin="miter">
</g>
<g fill="none" color="black" stroke="currentColor" stroke-width="2.00" stroke-linecap="butt" stroke-linejoin="miter">
</g>
<g fill="none" color="black" stroke="black" stroke-width="1.00" stroke-linecap="butt" stroke-linejoin="miter">
</g>
<g fill="none" color="black" stroke="currentColor" stroke-width="1.00" stroke-linecap="butt" stroke-linejoin="miter">
	<path stroke='black'  d='M53.9,18.1 L53.9,446.0 L615.0,446.0 L615.0,18.1 L53.9,18.1 Z  '/></g>
<g fill="none" color="black" stroke="currentColor" stroke-width="1.00" stroke-linecap="butt" stroke-linejoin="miter">
</g>
</g>
</svg>
